static/assets/template/assets/img/svg/shapes/wave-1.svg

<svg enable-background="new 0 0 1000 300" preserveAspectRatio="none" viewBox="0 0 1000 300" xmlns="http://www.w3.org/2000/svg"><path d="m0 246.131s31.631 3.904 47.487 3.298c17.662-.674 35.297-3.484 52.457-7.697 84.27-20.687 122.657-69.847 209.277-75.319 60.671-3.832 205.697 35.296 263.943 35.296 141.211 0 198.859-153.135 337.383-180.433 29.264-5.767 89.453 2.749 89.453 2.749v276.534h-1000.002z"/></svg>

<svg xmlns="http://www.w3.org/2000/svg" xmlns:xlink="http://www.w3.org/1999/xlink" preserveAspectRatio="none" x="0px" y="0px" viewBox="0 0 1000 300" style="enable-background:new 0 0 1000 300;" xml:space="preserve" class="ie-shape-wave-1"> 
    <path d="M 0 246.131 C 0 246.131 31.631 250.035 47.487 249.429 C 65.149 248.755 82.784 245.945 99.944 241.732 C 184.214 221.045 222.601 171.885 309.221 166.413 C 369.892 162.581 514.918 201.709 573.164 201.709 C 714.375 201.709 772.023 48.574 910.547 21.276 C 939.811 15.509 1000 24.025 1000 24.025 L 1000 300.559 L -0.002 300.559 L 0 246.131 Z" />
</svg>
